X:10
T:La mazurka de Bergre [semble ok mais transpos]
R:
S:
N:
A:Champagne
G:
O:France
Z:<anamnese@laposte.net>
M:3/4
L:1/4
Q:1/4=135
K:C
G | cGc | e2 c/e/ | gec | cBG | BGB | c2 B/A/ | gfd | e2 g | cGc | e2 c/e/ |
g e c | c B G | BAB | d2 BA | gfd | c3 || g | e d/>e/ f/>e/ | d2 g | 
g/a/ g/f/ e/d/ | ecg | e d/>e/ f/>e/ | d2 G | G/A/ G/F/ E/D/ | c3 :|
